!!!OTL: Lion's Den
!!!ONM: 43.
**kern
*clefG2
*k[b-]
*F:
!Referent unclear -- Conklin/Pearce 
*M4/4
*MM112
{8c
=1
4f
8f
8f
8f
4a
8a
=2
4a
8a
8a
4f
8c}
{8c
=3
8.f
16f
8f
8e
4f
4g
=4
2a
4r
8r}
{8a
=5
4a
4cc
4ff
8ff
8dd
=6
4f
4f
4a
8f}
{8c
=7
8.a
16a
8a
8f
4c
8.d
16c
=8
2c
2r}
=9
{4f
8.f
16f
4f
8a
8f
=10
4a
8.a
16a
8f
8d
8c}
{8c
=11
8.f
16f
8f
8c
4f
8g
8a
=12
2g
4r}
{8cc
8cc
=13
4dd
4dd
4.ff
8f
=14
4g
4a
8f
4f}
{8c
=15
4f
8a
8f
4d
4c
=16
4.d
8d
2c}
==
*-
!!!CNT: Folksongs of Maritime Canada
!!!MRD: 1928///-1932///
!!!OCL: Helen Creighton
!!!YOR: Songs and Ballads from Nova Scotia
!!!PPR: J.M. Dent & Sons, Limited
!!!PPP: Toronto, Canada
!!!PDT: 1932///
!!!reprint: Dover Publications, 1992: ISBN 0-486-21703-5
!!!ENC1: Craig Stuart Sapp (music and bibliographic data)                       
!!!ENC2: Marcus Pearce (phrase markings and key designations)                   
!!!ENC3: Darrell Conklin (phrase markings and key designations)   
!!!END: 2002/04/10/
!!!EEV: 2004/06/05
!!!MPN: Mr. Ben Henneberry
!!!PPG: 87
!!!EFL: 43/152
!!!ARE: Canada; Nova Scotia
!!!verses: 5
!!!VTS: 3014595320
